X:16
T:16 Untitled Hornpipe
C:Welch MS
I:abc2nwc
M:C
L:1/8
K:G
D2|GBdB edcB|ABcA GFED|EDEF GABc|A2A2A2D2|
GBdB edcA|ABcA GFED|Acec BAGF|G2G2G2:|
d2|g3f gfed|efge dcBA|cdec BGdB|B2A2A2d2|
g3f gfed|efge edcB|Acec BAGF|G2G2G2:|


